X:146
T: AUF DEM SEE DA SCHWIMMT EIN SCHWANEN
N: E0731
O: Europa, Mitteleuropa, Deutschland, Elberfeld
R: Liebes - Lied, Leid, Klage, Tod
M: 3/4
L: 1/16
K: C
cBAG | G3FE2E2F2A2 | A4G4
cBAG | G3FE2E2F2A2 | A4G4z2
G2 | GABGc3ed2c2 | cBAGG2
c2GAGF | E3FG4GFDF | F4E4

